polaris-icons/icons/newicons/LanguageMinor.svg

<svg width="20" height="20" viewBox="0 0 20 20" fill="none" xmlns="http://www.w3.org/2000/svg">
<path fill-rule="evenodd" clip-rule="evenodd" d="M8.25 3.25C8.25 2.83579 7.91421 2.5 7.5 2.5C7.08579 2.5 6.75 2.83579 6.75 3.25V4H3.25C2.83579 4 2.5 4.33579 2.5 4.75C2.5 5.16421 2.83579 5.5 3.25 5.5H4.75452C4.81204 7.08015 5.41263 8.5216 6.37527 9.64336C5.54934 10.185 4.56146 10.5 3.5 10.5C3.08579 10.5 2.75 10.8358 2.75 11.25C2.75 11.6642 3.08579 12 3.5 12C4.99722 12 6.38058 11.5125 7.50004 10.6877C8.4438 11.383 9.57514 11.8385 10.8042 11.9645L8.57919 16.4146C8.39395 16.7851 8.54412 17.2356 8.9146 17.4208C9.28509 17.6061 9.73559 17.4559 9.92083 17.0854L10.5885 15.75H15.4115L16.0792 17.0854C16.2644 17.4559 16.7149 17.6061 17.0854 17.4208C17.4559 17.2356 17.6061 16.7851 17.4208 16.4146L13.6708 8.91459C13.5438 8.6605 13.2841 8.5 13 8.5C12.7159 8.5 12.4562 8.6605 12.3292 8.91459L11.4806 10.6118C11.3756 10.5411 11.2512 10.496 11.1159 10.4862C10.2005 10.4201 9.35011 10.1192 8.62465 9.64342C9.58729 8.52161 10.1879 7.08009 10.2455 5.5H11.75C12.1642 5.5 12.5 5.16421 12.5 4.75C12.5 4.33579 12.1642 4 11.75 4H8.25V3.25ZM8.74415 5.5H6.25582C6.31206 6.69936 6.77081 7.79358 7.49999 8.65054C8.2292 7.79363 8.68792 6.69944 8.74415 5.5ZM13 10.9271L14.6615 14.25H11.3385L13 10.9271Z" fill="black"/>
</svg>

<svg viewBox="0 0 20 20" fill="none" xmlns="http://www.w3.org/2000/svg"><path fill-rule="evenodd" clip-rule="evenodd" d="M8.25 3.25a.75.75 0 0 0-1.5 0v.75h-3.5a.75.75 0 0 0 0 1.5h1.505a6.721 6.721 0 0 0 1.62 4.143 5.225 5.225 0 0 1-2.875.857.75.75 0 0 0 0 1.5 6.72 6.72 0 0 0 4-1.312 6.716 6.716 0 0 0 3.304 1.276l-2.225 4.45a.75.75 0 1 0 1.342.671l.668-1.335h4.822l.668 1.335a.75.75 0 1 0 1.342-.67l-3.75-7.5a.75.75 0 0 0-1.342 0l-.848 1.697a.748.748 0 0 0-.365-.126 5.219 5.219 0 0 1-2.491-.843 6.722 6.722 0 0 0 1.62-4.143h1.505a.75.75 0 0 0 0-1.5h-3.5v-.75Zm.494 2.25h-2.488a5.228 5.228 0 0 0 1.244 3.15 5.227 5.227 0 0 0 1.244-3.15Zm4.256 5.427 1.662 3.323h-3.324l1.662-3.323Z" fill="#5C5F62"/></svg>
